X: 21068
T: Jura Wedding, The
R: reel
M: 4/4
K: Amajor
|:cBAF A3F|EFC2 B,CEA|F2cF EFBE|F2cF ABce|
cBAF A3F|EFCB, CEFc|BABc EFAc|1 ecBE A3c:|2 ecBE A3f||
|:feBc e3c|B2BA B/c/dcA|F2cF EFBE|F2cF ABce|
feac e3c|BABc dcBA|BABc EFAc|1 ecBE A3f:|2 ecBE A3c||

